X: 29586
T: Nóra Críona
R: jig
M: 6/8
K: Gmajor
~G3 {c}BAG|~A2B cBA|d(3.B.c.d gdB|(3A.B.c.A .d.^c.A|
~G3 BAG|dcB ABd|(3egaf {a}gdB|A2B {d}cBA:|
|:d(3Bcd gdB|ded dBG|.d (3Bcd gdB|~A2B {d}cBA|
d(3Bcd gdB|d(3Bcd ~g3|bge dcB|{d}cAB {d}cBA:|

